packages/dnb-ui-lib/assets/icons/reset.svg

<svg width="16" height="16" viewBox="0 0 16 16" fill="none" xmlns="http://www.w3.org/2000/svg">
<path d="M5.33333 14.4741L5.96679 14.0726L5.83933 13.8715L5.61924 13.7808L5.33333 14.4741ZM6.41667 10.6667C6.41667 10.2525 6.08088 9.91667 5.66667 9.91667C5.25245 9.91667 4.91667 10.2525 4.91667 10.6667H6.41667ZM5.66667 15V15.75C6.08088 15.75 6.41667 15.4142 6.41667 15H5.66667ZM1.33333 14.25C0.91912 14.25 0.583333 14.5858 0.583333 15C0.583333 15.4142 0.91912 15.75 1.33333 15.75V14.25ZM9.34002 14.1062C8.93534 14.1945 8.67891 14.5942 8.76726 14.9989C8.85561 15.4036 9.25529 15.66 9.65998 15.5717L9.34002 14.1062ZM1.75 8C1.75 4.54822 4.54822 1.75 8 1.75V0.25C3.71979 0.25 0.25 3.71979 0.25 8H1.75ZM8 1.75C11.4518 1.75 14.25 4.54822 14.25 8H15.75C15.75 3.71979 12.2802 0.25 8 0.25V1.75ZM5.61924 13.7808C3.34704 12.8439 1.75 10.6075 1.75 8H0.25C0.25 11.236 2.23311 14.0071 5.04743 15.1675L5.61924 13.7808ZM4.91667 10.6667V15H6.41667V10.6667H4.91667ZM5.66667 14.25H1.33333V15.75H5.66667V14.25ZM4.69988 14.8757L5.03321 15.4015L6.30012 14.5985L5.96679 14.0726L4.69988 14.8757ZM14.25 8C14.25 10.9911 12.148 13.4931 9.34002 14.1062L9.65998 15.5717C13.1423 14.8114 15.75 11.7111 15.75 8H14.25Z" fill="black"/>
</svg>

<svg width="16" height="16" viewBox="0 0 16 16" fill="none" xmlns="http://www.w3.org/2000/svg"><path d="M5.333 14.474l.634-.401-.128-.202-.22-.09-.286.693zm1.084-3.807a.75.75 0 00-1.5 0h1.5zM5.667 15v.75a.75.75 0 00.75-.75h-.75zm-4.334-.75a.75.75 0 000 1.5v-1.5zm8.007-.144a.75.75 0 10.32 1.466l-.32-1.466zM1.75 8A6.25 6.25 0 018 1.75V.25A7.75 7.75 0 00.25 8h1.5zM8 1.75A6.25 6.25 0 0114.25 8h1.5A7.75 7.75 0 008 .25v1.5zM5.62 13.78A6.252 6.252 0 011.75 8H.25a7.752 7.752 0 004.797 7.168l.572-1.387zm-.703-3.113V15h1.5v-4.333h-1.5zm.75 3.583H1.333v1.5h4.334v-1.5zm-.967.626l.333.526 1.267-.803-.333-.526-1.267.803zM14.25 8a6.253 6.253 0 01-4.91 6.106l.32 1.466A7.753 7.753 0 0015.75 8h-1.5z" fill="#000"/></svg>
